X:1
T:We’ll Work Till Jesus Comes
T:We’ll Work Till Jesus Comes
T:William Miller, 19th Century
T:Elizabeth King Mills (1805-1829)
T:Public Domain Courtesy of the Cyber Hymnal™
C:William Miller, 19th Century
Z:Public Domain
Z:Courtesy of the Cyber Hymnal™
%%score ( 1 2 ) ( 3 4 )
L:1/8
Q:1/4=110
M:4/4
K:Eb
V:1 treble 
V:2 treble 
V:3 bass 
V:4 bass 
V:1
 (EF) | [EG]2 [EG]2 [EG]2 [EG]2 | [DB]2 [EG]2 (GF) E2 | [DF]3 [CE] [DF]2 [DF]2 | (G2 B4) (EF) | %5
w: 1.~O *|land of rest, for|thee I sigh! * When|will the mo- ment|come * When *|
w: 2.~To *|Je- sus Christ I|fled for rest; * He|bade me cease to|roam, * And *|
w: 3.~I *|sought at once my|Sav- ior’s side; * No|more my steps shall|roam. * With *|
 [EG]2 [EG]2 [EG]2 [EG]2 | [DB]2 [EG]2 (GF) E2 | [DF]3 E [DF]2 [DG]2 | E6 ||"^Refrain" [GB]2 | %10
w: I shall lay my|ar- mor by * And|dwell in peace at|home?||
w: lean for com- fort|on His breast * Till|He con- duct me|home.|We’ll|
w: Him I’ll brave death’s|chill- ing tide * And|reach my heav’n- ly|home.||
 [GB]6 [GB]2 | [Ac]2 [GB]2 (GF) E2 | (z2 [DF]2) x6 | [EG]2 [GB]2 [GB]2 [GB]2 | [GB]6 [GB]2 | %15
w: |||||
w: work till|Je- sus comes, * We’ll||work till Je- sus|comes, We’ll|
w: |||||
 [Ac]2 [GB]2 (GF) [B,E]2 | [DF]3 E [DF]2 [DG]2 | [B,E]6 |] %18
w: |||
w: work till Je- * sus|comes, And we’ll be|ga-|
w: |||
V:2
 E2 | x8 | x4 E2 x2 | x8 | E6 E2 | x8 | x4 E2 E2 | x3 E x4 | E6 || x2 | x8 | x4 E2 x2 | %12
 (B6 B,2 E2) | x8 | x8 | x4 E2 x2 | x3 E x4 | x6 |] %18
V:3
 (G,A,) | [E,B,]2 [E,B,]2 [E,B,]2 [E,B,]2 | [B,,B,]2 [E,B,]2 (B,A,) [E,G,]2 | %3
 [B,,B,]3 [B,,B,] [B,,B,]2 [B,,B,]2 | (B,2 G,4) (G,A,) | [E,B,]2 [E,B,]2 [E,B,]2 [E,B,]2 | %6
 [B,,B,]2 [E,B,]2 (B,A,) [E,G,]2 | [B,,A,]3 [B,,G,] [B,,A,]2 [B,,B,]2 | [E,G,]6 || z2 | %10
 z2 [E,B,]2 [E,B,]2 [E,E]2 | [A,,E]2 [E,E]2 (B,A,) G,2 | z2 [B,,B,]2 x6 | %13
 [E,B,]2 [E,B,]2 [E,B,]2 z2 | z2 [E,B,]2 [E,B,]2 [E,E]2 | [A,,E]2 [E,E]2 (B,A,) [E,G,]2 | %16
 [B,,A,]3 [B,,G,] [B,,A,]2 [B,,B,]2 | [E,G,]6 |] %18
V:4
 E,2 | x8 | x4 E,2 x2 | x8 | E,6 E,2 | x8 | x4 E,2 x2 | x8 | x6 || x2 | x8 | x4 E,2 x2 | %12
 (B,6 E,2) E,2 | x8 | x8 | x4 E,2 x2 | x8 | x6 |] %18

